X:1
T:BWV 974 adagio (A = 415 Hz)
T:A. Marcello (Transcription by J. S. Bach)
T:Harpsichord sound
%%score { ( 1 3 5 ) | ( 2 4 6 ) }
L:1/8
Q:1/4=66
M:3/4
K:F
V:1 treble nm="ハープシーコード"
V:3 treble 
V:5 treble 
V:2 bass 
V:4 bass 
V:6 bass 
V:1
 DD DD DD | EE EE EE | GG GG GG | df fa ac'/b/ | Mb4 z2 | ce/d/ eg/f/ gb/a/ | Ma4 z2 | %7
 B/c/4A/4B/d/4^c/4 d/e/4c/4d/f/4e/4 f/g/4e/4f/a/4g/4 | Mg4 z2 | %9
 A/4^G/4A/4=B/4A/4B/4^c/4B/4 c/4d/4c/4d/4e/4d/4e/4f/4 e/4f/4g/4f/4g/4f/4g/4e/4 | %10
 Mf2 z/ f/b/a/ b/g/g/4f/4e/4f/4 | Pe2 z/ e/f/a/4g/4 a/4f/g/<Pe/f/4 | %12
{e} d2 z/4 d/4e/4f/4g/4f/4e/4f/4 g/f/4e/4f/g/ | P^c4 z2 | ^fa af c/a/f/c/ | c2 PB2 z2 | %16
 ^g/=b/g/a/ b/g/e/b/ g/e/d/b/ | dc fe eMf- | fg/f/ ef/d/ Me2- | e/g/f/e/ d/^c/e/d/ Md2 | %20
 d/c/=B/c/ d/e/f/e/ dc- | c/B/c/A/ B/c/d/e/ f/g/a/b/ | Pe2- e/4d/4c/4d/4e/4d/4f/4e/4 Mf2- | %23
 f/>g/f/4e/4f/4g/4 Pg2- g/f/g/4e/4f/4d/8_e/8 | M_e2- eg b/g/f/e/ | M_e2- e/g/a/b/ c'/a/f/e/ | %26
 P_e2 d3/2=e/4^f/4 g/4a/4b/4a/4g/4=f/4e/4g/8f/8 | f Mg2 a g/fg/4e/4 | %28
 Mf/>g/f/4e/4f/4g/4 d-d/4^c/4=B/4c/4 Pc/>d/c/d/4_B/4 |{A} G6- | G/F/E/F/ G/A/B/A/ g/e/f/^c/ | %31
 Pd/>e/d/4^c/4d/4e/4 Pe2- e/d/=B/4d/4f/4a/4 | %32
 P^g-g/4a/4g/4^f/4 e/4f/4g/4f/4g/4a/4g/4f/8g/8 a/4b/4a/4=g/4=f/g/4e/4 | %33
 f/4g/4a/4g/4f/4e/4f/4d/4 d/>^c/d/4=B/4c/ Pc>d | d4 z2 | [DE][DE] [DE][DE] [CE][CE] | %36
 [D^F][DF] [DF][DF] [DF][DF] | [DG][DG] [DG][DG] [DG][DG] | G3 A FE | FG PE4 | D6 |] %41
V:2
 z6 | DD DD DD | ^CC CC CC | D[DF] [DF][DF] [DF][DF] | [DF][DF] [DF][DF] [DF][DF] | EE EE EE | %6
[K:bass] [CE][CE] [CE][CE] [CE][CE] | DD DD DD | [B,D][B,D] [B,D][B,D] [B,D][B,D] | ^CC CC CC | %10
 DD[K:treble] [FB][FB] [FB][FB] | [GB][GB] [EA][EA] [EA][EA] | [FA][FA] [DG][DG] [DG][DG] | %13
 [EG][EG][K:bass] A,A, A,A, | A,D[K:treble] [^FA][FA] [FA][FA] | [DG][DG] [DG][DG] [DG][DG] | %16
 [^G=B][GB] [GB][GB] [GB][GB] | [EA][EA] cc cc | BB BB BB | AA AA AA | GG GG GG | FF FF [FB][FB] | %22
 [GB][GB] [GB][GB] [FA][FA] | GF- F2 E2 | [B,G][B,G] [B,G][B,G] [B,G][B,G] | %25
 [CF][CF] [CF][CF] [CF][CF] | FF FF DG | ^CC CC DD | DE EG FE | D/^C/E/D/ F/E/G/F/ E/D/C/D/ | %30
 P^CC CC[K:bass] [A,C][A,D] | [B,D][B,D] ^CG FE | [=B,D][B,D] [B,D][B,D] ^CC | DB, A,2 A,2 | %34
 D,D, D,D, D,D, | E,E, E,E, E,E, | D,D, D,D, D,D, | D,D, E,E, E,E, | E,E, E,E, D,2- | %39
 D,/^C,/D,/E,/ z/ D,/E,/F,/ E,^F,/G,/ | ^F,6 |] %41
V:3
 x6 | x6 | EE EE EE | F z z4 | x6 | x6 | x6 | x6 | x6 | x6 | x6 | x6 | x6 | %13
 z2 [EGA][EGA] [EGA][EGA] | [Ac] z z4 | x6 | x6 | x6 | x6 | x6 | x6 | x6 | x6 | x6 | x6 | x6 | x6 | %27
 x6 | x6 | x6 | x6 | x6 | x6 | x6 | z [DF] [DF][DF] [DF][DF] | A,A, A,A, A,A, | %36
 [A,C][A,C] [A,C][A,C] [A,C][A,C] | [G,C][G,B,] B,B, B,B, | ^CC CC DC | D4 ^C2 | A,6 |] %41
V:4
 x6 | x6 | A,A, A,A, A,A, | D, z z2 z2 | G,G, G,G, G,G, | CC CC CC |[K:bass] F,F, F,F, F,F, | %7
 B,B, B,B, B,B, | E,E, E,E, E,E, | A,A, A,A, A,A, | D,D,[K:treble] DD DD | DD CC CC | %12
 CC B,B, B,B, | A,A,[K:bass] A,,A,, A,,A,, | D,2[K:treble] DD DD | G,G, G,G, G,G, | EE EE EE | %17
 A,A, AA AA | GG GG GG | FF FF FF | EE EE EE | DD DD DD | CC CC DD | [B,D]2 C4 | G,G, G,G, G,G, | %25
 A,A, A,A, A,A, | B,B, B,B, B,B, | A,A, A,A, B,B, | [G,B,][G,B,] A,A, A,A, | B,B, B,B, B,B, | %30
 A,A, A,A,[K:bass] F,F, | G,G, A,A, A,A, | E,E, E,E, A,A, | D,G, A,G, A,A,, | z D,, D,,D,, D,,D,, | %35
 A,,A,, A,,A,, A,,A,, | D,,D,, D,,D,, D,,D,, | G,,G,, G,,G,, G,,G,, | A,,A,, A,,A,, B,,B,, | %39
 G,,G,, A,,A,, A,,A,, | D,,6 |] %41
V:5
 x6 | x6 | x6 | x6 | x6 | x6 | x6 | x6 | x6 | x6 | x6 | x6 | x6 | x6 | x6 | x6 | x6 | x6 | x6 | %19
 x6 | x6 | x6 | x6 | x6 | x6 | x6 | x6 | x6 | x6 | x6 | x6 | x6 | x6 | x6 | z2 z A, A,A, | x6 | %36
 x6 | x6 | x6 | x6 | x6 |] %41
V:6
 x6 | x6 | x6 | x6 | x6 | x6 |[K:bass] x6 | x6 | x6 | x6 | x2[K:treble] x4 | x6 | x6 | %13
 x2[K:bass] x4 | x2[K:treble] x4 | x6 | x6 | x6 | x6 | x6 | x6 | x6 | x6 | x6 | x6 | x6 | x6 | x6 | %28
 x6 | x6 | x4[K:bass] x2 | x6 | x6 | x6 | x6 | x6 | x6 | x6 | A,2 z4 | x6 | x6 |] %41

